iphone/Maps/Images.xcassets/Interface/Search/Categories/pharmacy.imageset/pharmacy_light.svg

<svg height="28" viewBox="0 0 28 28" width="28" xmlns="http://www.w3.org/2000/svg"><g fill="none" opacity=".898664"><circle cx="14" cy="14" fill="#d85961" fill-rule="evenodd" r="14"/><path d="m16.961 6.99999417c-1.0583067 0-2.11225.41071916-2.8883167 1.17973916l-5.8427833 5.81104997c-1.20458333 1.1935-1.53183333 2.92635-.94806833 4.3692834 0 0 .436555 1.0224083.85988 1.4418833.39849833.3948583.87964333.6729217 1.36698333.873845.13455167.0694132.23618.094717.352765.131075.015652.0048285.02840133.0172083.0440965.0218458 1.4026833.4145284 2.96765.0786462 4.0348-1.0267716l3.52765-3.49545 2.3150167-2.3157167c1.6227166-1.6079 1.6227166-4.18576667 0-5.72366667-.7055417-.83889166-1.7638834-1.26711666-2.8221667-1.26711666zm0 1.39813916c.7055417 0 1.4242667.27526334 1.9182333.76462167.4939667.48935833.77168 1.20155.77168 1.9006167 0 .6990783-.2778066 1.3893833-.77168 1.8788l-2.4032166 2.3812833-3.8102167-3.8003 2.3329833-2.29483333c.5644334-.559265 1.18615-.83018834 1.9623334-.83018834z" fill="#fff"/></g></svg>

<?xml version="1.0" encoding="UTF-8"?>
<svg width="28px" height="28px" viewBox="0 0 28 28" version="1.1" xmlns="http://www.w3.org/2000/svg" xmlns:xlink="http://www.w3.org/1999/xlink">
    <title>pharmacy_light</title>
    <g id="pharmacy_light" stroke="none" fill="none" fill-rule="evenodd">
        <path d="M14,0 C21.7319865,0 28,6.2680135 28,14 C28,21.7319865 21.7319865,28 14,28 C6.2680135,28 0,21.7319865 0,14 C0,6.2680135 6.2680135,0 14,0 Z M16.9608565,6.99999417 C15.9026933,6.99999417 14.84875,7.41071333 14.0726833,8.17973333 L8.2299,13.9907833 C7.02531667,15.1842833 6.69806667,16.9171333 7.28183167,18.3600667 L7.3014167,18.4048176 C7.3907637,18.6062479 7.77130229,19.4349094 8.14171167,19.80195 C8.54021,20.1968083 9.021355,20.4748717 9.508695,20.675795 C9.64324667,20.7452082 9.744875,20.770512 9.86146,20.80687 L9.9055565,20.8287158 C11.3082398,21.2432442 12.8732065,20.907362 13.9403565,19.8019442 L17.4680065,16.3064942 L19.7830232,13.9907775 C21.4057398,12.3828775 21.4057398,9.80501083 19.7830232,8.26711083 C19.0774815,7.42821917 18.0191398,6.99999417 16.9608565,6.99999417 Z M16.96,8.398 C17.6665417,8.39813333 18.3852667,8.67339667 18.8792333,9.162755 C19.3732,9.65211333 19.6509133,10.364305 19.6509133,11.0633717 C19.6509133,11.76245 19.3731067,12.452755 18.8792333,12.9421717 L16.4760167,15.323455 L12.6658,11.523155 L14.9987833,9.22832167 C15.5119045,8.71989894 16.0723674,8.44977511 16.753187,8.40486353 L16.96,8.398 Z" id="Shape" fill="#D85961"></path>
    </g>
</svg>
